public/icons/tokens/tribe.svg

<svg width="32" height="32" viewBox="0 0 32 32" fill="none" xmlns="http://www.w3.org/2000/svg">
<circle cx="16" cy="16" r="16" fill="#178DD0"/>
<path d="M7.5 8.51043C7.5 7.05761 8.58917 5.83958 10.038 5.73215C11.6002 5.61631 13.7332 5.5 16 5.5C18.2668 5.5 20.3998 5.61631 21.962 5.73215C23.4108 5.83958 24.5 7.05761 24.5 8.51043C24.5 9.95434 23.4241 11.166 21.9842 11.2736C20.4614 11.3875 18.3601 11.5 16 11.5C13.6399 11.5 11.5386 11.3875 10.0158 11.2736C8.57587 11.166 7.5 9.95434 7.5 8.51043Z" fill="white"/>
<path d="M7.46268 16.6239C7.56906 15.6753 8.38397 15.0187 9.33305 15.1204C9.66482 15.156 10.0499 15.202 10.4907 15.2616C10.8781 15.314 11.2309 15.3951 11.5476 15.4912C12.8958 15.9005 13.5 17.303 13.5 18.7119C13.5 19.3686 13.5 20.2019 13.5 21.25C13.5 22.7226 13.5 23.7711 13.5 24.5015C13.5 25.3299 12.8288 26 12.0004 26C11.4586 26 10.8361 26 10.25 26C10.2094 26 10.1692 26 10.1293 26C8.71114 25.9994 7.50726 24.9902 7.38349 23.5774C7.30868 22.7236 7.25 21.6783 7.25 20.5C7.25 18.9261 7.35469 17.5868 7.46268 16.6239Z" fill="white"/>
<path d="M24.2873 16.6239C24.1809 15.6753 23.366 15.0187 22.417 15.1204C22.0852 15.156 21.7001 15.202 21.2593 15.2616C20.8719 15.314 20.5191 15.3951 20.2024 15.4912C18.8542 15.9005 18.25 17.303 18.25 18.7119C18.25 19.3686 18.25 20.2019 18.25 21.25C18.25 22.7226 18.25 23.7711 18.25 24.5015C18.25 25.3299 18.9212 26 19.7496 26C20.2914 26 20.9139 26 21.5 26C21.5406 26 21.5808 26 21.6207 26C23.0389 25.9994 24.2427 24.9902 24.3665 23.5774C24.4413 22.7236 24.5 21.6783 24.5 20.5C24.5 18.9261 24.3953 17.5868 24.2873 16.6239Z" fill="white"/>
</svg>

<svg width="32" height="32" fill="none" xmlns="http://www.w3.org/2000/svg"><circle cx="16" cy="16" r="16" fill="#178DD0"/><path d="M7.5 8.51c0-1.452 1.09-2.67 2.538-2.778A82.271 82.271 0 0 1 16 5.5c2.267 0 4.4.116 5.962.232C23.411 5.84 24.5 7.058 24.5 8.51c0 1.444-1.076 2.656-2.516 2.764A81.308 81.308 0 0 1 16 11.5c-2.36 0-4.461-.113-5.984-.226C8.576 11.166 7.5 9.954 7.5 8.51ZM7.463 16.624a1.678 1.678 0 0 1 1.87-1.504c.332.036.717.082 1.158.142.387.052.74.133 1.057.23 1.348.408 1.952 1.811 1.952 3.22V24.502C13.5 25.33 12.829 26 12 26h-1.87c-1.419 0-2.623-1.01-2.747-2.423a35.415 35.415 0 0 1 .08-6.953ZM24.287 16.624a1.678 1.678 0 0 0-1.87-1.504 42.45 42.45 0 0 0-1.158.142c-.387.052-.74.133-1.057.23-1.348.408-1.952 1.811-1.952 3.22V24.502c0 .828.671 1.498 1.5 1.498h1.87c1.419 0 2.623-1.01 2.746-2.423a35.418 35.418 0 0 0-.079-6.953Z" fill="#fff"/></svg>
